images/icons/c-plus-plus_svgrepo.com.svg

<svg width="60" height="60" viewBox="0 0 60 60" fill="none" xmlns="http://www.w3.org/2000/svg">
<path d="M44.6184 38.445C44.8537 38.0372 45 37.5778 45 37.1653V22.8441C45 22.4316 44.8537 21.9722 44.6184 21.5653L30 30.0047L44.6184 38.445Z" fill="#00599C"/>
<path d="M31.2994 46.575L43.7007 39.4153C44.0578 39.209 44.3832 38.8528 44.6185 38.445L30 30.0046L15.3816 38.445C15.6169 38.8528 15.9422 39.209 16.2994 39.4153L28.7007 46.575C29.415 46.9874 30.585 46.9874 31.2994 46.575Z" fill="#004482"/>
<path d="M44.6184 21.5653C44.3831 21.1566 44.0578 20.8013 43.7006 20.595L31.2994 13.4344C30.585 13.0219 29.415 13.0219 28.7006 13.4344L16.2994 20.595C15.585 21.0075 15 22.02 15 22.845V37.1653C15 37.5778 15.1462 38.0372 15.3816 38.445L30 30.0047L44.6184 21.5653Z" fill="#659AD2"/>
<path d="M30.0001 40.005C24.4857 40.005 19.9998 35.5191 19.9998 30.0047C19.9998 24.4903 24.4857 20.0044 30.0001 20.0044C33.5579 20.0044 36.8766 21.9197 38.6598 25.0013L34.3323 27.5063C33.8918 26.7471 33.2599 26.1166 32.4998 25.6778C31.7397 25.2389 30.8778 25.0069 30.0001 25.005C28.6746 25.0068 27.4039 25.5341 26.4667 26.4713C25.5294 27.4086 25.0021 28.6792 25.0004 30.0047C25.0016 31.3305 25.5287 32.6017 26.466 33.5393C27.4033 34.477 28.6743 35.0045 30.0001 35.0063C30.8779 35.0043 31.7398 34.7722 32.5 34.3331C33.2601 33.8941 33.8919 33.2634 34.3323 32.5041L38.6598 35.0081C37.7788 36.5251 36.5157 37.7846 34.9963 38.6612C33.4769 39.5377 31.7542 40.0017 30.0001 40.005Z" fill="white"/>
<path d="M40.0002 29.4496H38.8874V28.3378H37.7765V29.4496H36.6655V30.5606H37.7765V31.6715H38.8874V30.5606H39.9993L40.0002 29.4496ZM44.1665 29.4496H43.0555V28.3378H41.9437V29.4496H40.8327V30.5606H41.9437V31.6715H43.0546V30.5606H44.1655L44.1665 29.4496Z" fill="white"/>
</svg>

<svg width="60" height="60" viewBox="0 0 60 60" fill="none" xmlns="http://www.w3.org/2000/svg">
  <g transform="scale(1.7) translate(-12, -12)">

<path d="M44.618 38.445c.236-.408.382-.867.382-1.28v-14.32c0-.413-.146-.873-.382-1.28L30 30.005zM31.3 46.575l12.4-7.16c.358-.206.683-.562.918-.97L30 30.005l-14.618 8.44c.235.408.56.764.917.97l12.402 7.16c.714.412 1.884.412 2.598 0Z" stroke="#fff"/><path d="M44.618 21.565c-.235-.408-.56-.764-.917-.97l-12.402-7.16c-.714-.413-1.884-.413-2.598 0l-12.402 7.16c-.714.413-1.299 1.425-1.299 2.25v14.32c0 .413.146.872.382 1.28L30 30.005z" stroke="#fff"/><path d="M30 40.005c-5.514 0-10-4.486-10-10s4.486-10 10-10c3.558 0 6.877 1.915 8.66 4.996l-4.328 2.505A5.02 5.02 0 0 0 30 25.005a5.007 5.007 0 0 0-5 5 5.006 5.006 0 0 0 5 5.001 5.02 5.02 0 0 0 4.332-2.502l4.328 2.504A10.04 10.04 0 0 1 30 40.005Z" fill="#fff" stroke="#000"/><path d="M40 29.45h-1.113v-1.112h-1.11v1.112h-1.111v1.11h1.11v1.112h1.111V30.56H40zm4.166 0h-1.11v-1.112h-1.112v1.112h-1.111v1.11h1.11v1.112h1.112V30.56h1.11z" fill="#fff" stroke-width=".5" stroke="#000"/></g></svg>
